X:1
T:James Gibb editions
T:Alleluia - Andrea Gabrieli
%%score [ 1 2 3 4 ]
L:1/8
Q:1/4=140
M:4/4
K:Bb
V:1 treble nm="Soprano" snm="S"
V:2 treble nm="Alto" snm="A"
V:3 treble-8 nm="Tenor" snm="T"
V:4 bass nm="Bass" snm="B"
V:1
"^Alleluia" z2"^Andrea Gabrieli\n(1532-85)" d2 B2 c2 | d4 (c3 B | A2) B2 G4 |"^," A2 F2 G2 A2 | %4
w: Al- le- lu-|ia, al\- *|* le- lu-|ia, al- le- lu-|
 B4 A2 (G2- | G"^,"F !>!F4) =E2 | F4 z4 | z2 F2 B2 G2 | F2 A2 d2 c2 |"^," A2 d2 B2 c2 | d4 c3 B | %11
w: ia, al- le\-|* * * lu-|ia,|al- le- lu-|ia, al- le- lu-|ia, al- le- lu-|ia, al\- *|
 A2 B2 G4 |"^," A2 F2 G2 A2 | B4 A2[Q:1/4=138] (G2- |[Q:1/4=135] GF !>!F4) =E2[Q:1/4=130] | %15
w: * le- lu-|ia, al- le- lu-|ia, al- le\-|* * * lu-|
[Q:1/4=126] F8-[Q:1/4=124][Q:1/4=122][Q:1/4=120] |[Q:1/4=119] F8 |] %17
w: ia.||
V:2
 z2 F2 G2 A2 | B4 A2 (G2- | GF !>!F4) =E2 |"^," F2 D2 !courtesy!_E2 E2 |"^," F2 F4 E2 | D4 C4 | %6
w: Al- le- lu-|ia, al- le\-|* * * lu-|ia, al- le- lu-|ia, al- le-|lu- ia,|
 z2 D2 B,2 C2 |"^," D2 D2 B,2 C2 | D2 F2 F2 =E2 |"^," F2 F2 G2 A2 | B4 A2 (G2- | %11
w: al- le- lu-|ia, al- le- lu-|ia, al- le- lu-|ia, al- le- lu-|ia, al- le\-|
 G"^,"F !>!F4) =E2 |"^," F2 D2 !courtesy!_E2 E2 | F4 z2 E2 | D4 C4 |"^," C2 C2 B,2 D2 | C8 |] %17
w: * * * lu-|ia, al- le- lu-|ia, al-|le\-- lu-|ia, al- le- lu-|ia.|
V:3
 B4 e2 c2 | (Bcde f2) c2 | (d2 B2) c4 |"^," F2 B2 B2 c2 | d4 (c3 B | A2 B2 G4 |"^," F2 B2 G2 A2 | %7
w: Al- le- lu-|ia, * * * * al-|le\- * lu\--|ia, al- le- lu-|ia, al\- *|* le- lu-|ia, al- le- lu-|
 B4 z4 | z2 F2 B2 G2 |"^," F2 B2 e2 c2 | (Bcde f2) c2 | d2 B2) c4 |"^," F2 B2 B2 c2 | d4 (c3 B | %14
w: ia,|al- le- lu-|ia, al- le- lu-|ia, * * * * al-|le\- * lu-|ia, al- le- lu-|ia, al\- *|
 A2) B2 G4 |"^," F2 A2 d2 B2 | A8 |] %17
w: * le- lu-|ia, al- le- lu-|ia.|
V:4
 z8 | z8 | z8 | z2 B,,2 E,2 C,2 | (B,,C,D,E, F,2) C,2 | (D,2 B,,2) C,4 | F,2 B,,2 E,2 C,2 | %7
w: |||Al- le- lu-|ia, * * * * al-|le\- * lu-|ia, al- le- lu-|
 B,,4 z4 | z2 D,2 B,,2 C,2 | D,4 z4 | z8 | z8 | z2 B,,2 E,2 C,2 | (B,,C,D,E, F,2) C,2 | %14
w: ia,|al- le- lu-|ia,|||al- le- lu-|ia, * * * * al-|
 (D,2 B,,2) C,4 |"^," F,2 F,2 B,,2 B,,2 | F,8 |] %17
w: le\- * lu-|ia, al- le- lu-|ia.|

